svgs/light/fill-drip.svg

<svg xmlns="http://www.w3.org/2000/svg" viewBox="0 0 576 512"><!--! Font Awesome Pro 6.3.0 by @fontawesome - https://fontawesome.com License - https://fontawesome.com/license (Commercial License) Copyright 2023 Fonticons, Inc. --><path d="M36.69 4.686C42.93-1.562 53.06-1.562 59.31 4.686L156.7 102.1L221.1 37.66C249.2 9.539 294.8 9.539 322.9 37.66L474.3 189.1C502.5 217.2 502.5 262.8 474.3 290.9L283.9 481.4C246.4 518.9 185.6 518.9 148.1 481.4L30.63 363.9C-6.863 326.4-6.863 265.6 30.63 228.1L134.1 124.7L36.69 27.31C30.44 21.07 30.44 10.93 36.69 4.686L36.69 4.686zM244.7 235.3L156.7 147.3L53.25 250.7C42.8 261.2 36.71 274.4 35.01 288H432L451.7 268.3C467.3 252.7 467.3 227.3 451.7 211.7L300.3 60.28C284.7 44.66 259.3 44.66 243.7 60.28L179.3 124.7L267.3 212.7C273.6 218.9 273.6 229.1 267.3 235.3C261.1 241.6 250.9 241.6 244.7 235.3V235.3zM39.16 320C42.29 327.7 46.98 334.1 53.25 341.3L170.7 458.7C195.7 483.7 236.3 483.7 261.3 458.7L400 320H39.16zM576 448C576 483.3 547.3 512 512 512C476.7 512 448 483.3 448 448C448 422.8 480.6 368.4 499.2 339.3C505.3 329.9 518.7 329.9 524.8 339.3C543.4 368.4 576 422.8 576 448H576zM544 448C543.1 447.9 543.9 446.8 543.4 444.6C542.9 442.2 541.9 439.2 540.6 435.5C537.9 428.1 533.8 419.3 528.9 409.7C523.7 399.5 517.8 389.1 512 379.5C506.2 389.1 500.3 399.5 495.1 409.7C490.2 419.3 486.1 428.1 483.4 435.5C482.1 439.2 481.1 442.2 480.6 444.6C480.1 446.8 480 447.9 480 448C480 448 480 448 480 448C480 465.7 494.3 480 512 480C529.7 480 544 465.7 544 448C544 448 544 448 544 448H544z"/></svg>

<svg xmlns="http://www.w3.org/2000/svg" viewBox="0 0 576 512"><!--! Font Awesome Pro 6.4.0 by @fontawesome - https://fontawesome.com License - https://fontawesome.com/license (Commercial License) Copyright 2023 Fonticons, Inc. --><path d="M36.7 4.7c6.2-6.2 16.4-6.2 22.6 0l97.4 97.4 64.4-64.4c28.1-28.1 73.7-28.1 101.8 0L474.3 189.1c28.1 28.1 28.1 73.7 0 101.8L283.9 481.4c-37.5 37.5-98.3 37.5-135.8 0L30.6 363.9c-37.5-37.5-37.5-98.3 0-135.8L134.1 124.7 36.7 27.3c-6.2-6.2-6.2-16.4 0-22.6zm208 230.6l-88-88L53.3 250.7C42.8 261.2 36.7 274.4 35 288H432l19.7-19.7c15.6-15.6 15.6-40.9 0-56.6L300.3 60.3c-15.6-15.6-40.9-15.6-56.6 0l-64.4 64.4 88 88c6.2 6.2 6.2 16.4 0 22.6s-16.4 6.2-22.6 0zM39.2 320c3.1 7.7 7.8 15 14.1 21.3L170.7 458.7c25 25 65.5 25 90.5 0L400 320H39.2zM544 448s0 0 0 0v0c0-.1-.1-1.2-.6-3.4c-.6-2.4-1.5-5.4-2.8-9.1c-2.7-7.4-6.8-16.2-11.7-25.8c-5.2-10.2-11.2-20.6-16.9-30.3c-5.8 9.7-11.7 20.1-16.9 30.3c-4.9 9.6-8.9 18.4-11.7 25.8c-1.4 3.7-2.3 6.7-2.8 9.1c-.5 2.2-.6 3.3-.6 3.4c0 0 0 0 0 0c0 17.7 14.3 32 32 32s32-14.3 32-32zm32 0c0 35.3-28.7 64-64 64s-64-28.7-64-64c0-25.2 32.6-79.6 51.2-108.7c6-9.4 19.5-9.4 25.5 0C543.4 368.4 576 422.8 576 448z"/></svg>
